img/projects/funtech.svg

<svg xmlns="http://www.w3.org/2000/svg" width="236" height="49" viewBox="0 0 236 49" fill="none">
  <path d="M223.425 13.7238C230.255 13.7238 235.625 18.4617 235.625 28.0736V48.0293H224.618V29.4731C224.618 25.8703 222.494 24.2011 219.645 24.2011C216.264 24.2011 214.206 26.2709 214.206 30.2743V48.0267H203.199V1.30762H214.206V17.9943C216.063 15.3236 219.311 13.7238 223.425 13.7238Z" fill="#FAFAFA"/>
  <path d="M184.079 48.8725C174.001 48.8725 166.443 41.1968 166.443 31.2536C166.443 21.3104 174.003 13.6348 184.079 13.6348C190.645 13.6348 196.348 17.0373 199.2 22.2452L189.783 27.7175C188.722 25.7813 186.603 24.4459 184.013 24.4459C180.299 24.4459 177.514 27.2502 177.514 31.2536C177.514 35.2571 180.299 38.0613 184.013 38.0613C186.6 38.0613 188.788 36.726 189.783 34.7255L199.2 40.1979C196.348 45.4699 190.645 48.875 184.079 48.875V48.8725Z" fill="#FAFAFA"/>
  <path d="M138.862 35.3264C140.188 38.5313 143.105 39.3967 146.29 39.3967C148.676 39.3967 150.732 38.5955 152.322 37.0598L160.279 42.6657C156.964 46.8695 151.925 48.8725 146.023 48.8725C134.551 48.8725 127.456 41.1968 127.456 31.3204C127.456 21.444 134.752 13.6348 145.095 13.6348C155.438 13.6348 162.204 21.1769 162.204 31.1869C162.204 32.589 162.069 33.9243 161.741 35.3239H138.865L138.862 35.3264ZM138.728 27.6508H151.462C150.465 24.1814 147.88 22.9796 145.227 22.9796C142.045 22.9796 139.656 24.582 138.728 27.6508Z" fill="#FAFAFA"/>
  <path d="M122.746 25.2935H115.85V34.9696C115.85 38.1051 118.302 38.3054 122.746 38.0409V48.0509C109.219 49.72 104.843 45.5137 104.843 35.2367V25.2935H99.8701V14.6826H104.843V8.67613L115.85 5.34033V14.6826H122.746V25.2935Z" fill="#FAFAFA"/>
  <path d="M82.9582 13.6348C89.7883 13.6348 95.1582 18.3727 95.1582 27.9846V47.9403H84.1512V29.3867C84.1512 25.7838 82.0297 24.1147 79.1781 24.1147C75.7975 24.1147 73.7421 26.1845 73.7421 30.1879V47.9403H62.7351V14.5695H73.7421V17.9053C75.599 15.2346 78.8474 13.6348 82.9582 13.6348Z" fill="#FAFAFA"/>
  <path d="M20.887 10.4552C17.3715 10.1881 15.1839 11.4567 15.1839 14.5254H20.887V25.1363H15.1839V47.8936H4.1769V25.1388H0V14.5254H4.1769C4.1769 5.18311 9.61551 -0.489544 20.887 0.178129V10.4552Z" fill="#FAFAFA"/>
  <path d="M36.5561 14.7466H25.595V25.3164H36.5561V14.7466Z" fill="#FFB800"/>
  <path d="M57.8791 14.7466H46.918V25.3164H57.8791V14.7466Z" fill="#FFB800"/>
  <path d="M25.5564 34.2835V30.3391H36.6397V32.0622C36.6397 35.0103 37.4715 37.2521 41.7374 37.2521C46.0033 37.2521 46.8326 35.0103 46.8326 32.0622V30.3391H57.9159V34.2835C57.9159 43.1276 51.1392 48.7309 41.7374 48.7309C32.3356 48.7309 25.5564 43.1302 25.5564 34.2835Z" fill="#FAFAFA"/>
</svg>

<svg xmlns="http://www.w3.org/2000/svg" width="236" height="49" fill="none"><path d="M223.425 13.724c6.83 0 12.2 4.738 12.2 14.35v19.955h-11.007V29.473c0-3.603-2.124-5.272-4.973-5.272-3.381 0-5.439 2.07-5.439 6.073v17.753h-11.007V1.307h11.007v16.687c1.857-2.67 5.105-4.27 9.219-4.27Zm-39.346 35.149c-10.078 0-17.636-7.676-17.636-17.62 0-9.943 7.56-17.618 17.636-17.618 6.566 0 12.269 3.402 15.121 8.61l-9.417 5.473c-1.061-1.937-3.18-3.272-5.77-3.272-3.714 0-6.499 2.804-6.499 6.808 0 4.003 2.785 6.807 6.499 6.807 2.587 0 4.775-1.335 5.77-3.336l9.417 5.473c-2.852 5.272-8.555 8.677-15.121 8.677v-.002Zm-45.217-13.547c1.326 3.205 4.243 4.07 7.428 4.07 2.386 0 4.442-.8 6.032-2.336l7.957 5.606c-3.315 4.204-8.354 6.207-14.256 6.207-11.472 0-18.567-7.676-18.567-17.553 0-9.876 7.296-17.685 17.639-17.685s17.109 7.542 17.109 17.552a17.77 17.77 0 0 1-.463 4.137h-22.876l-.003.002Zm-.134-7.675h12.734c-.997-3.47-3.582-4.671-6.235-4.671-3.182 0-5.571 1.602-6.499 4.67Zm-15.982-2.357h-6.896v9.676c0 3.135 2.452 3.335 6.896 3.07v10.01c-13.527 1.67-17.903-2.536-17.903-12.813v-9.944H99.87v-10.61h4.973V8.676L115.85 5.34v9.343h6.896v10.61ZM82.958 13.635c6.83 0 12.2 4.738 12.2 14.35V47.94H84.151V29.387c0-3.603-2.121-5.272-4.973-5.272-3.38 0-5.436 2.07-5.436 6.073V47.94H62.735V14.57h11.007v3.335c1.857-2.67 5.105-4.27 9.216-4.27Zm-62.071-3.18c-3.515-.267-5.703 1.002-5.703 4.07h5.703v10.611h-5.703v22.758H4.177V25.139H0V14.525h4.177C4.177 5.183 9.616-.49 20.887.178v10.277Z" fill="#FAFAFA"/><path d="M36.556 14.747H25.595v10.57h10.961v-10.57Zm21.324 0H46.917v10.57h10.961v-10.57Z" fill="#FFB800"/><path d="M25.556 34.283V30.34H36.64v1.723c0 2.948.831 5.19 5.097 5.19s5.096-2.242 5.096-5.19V30.34h11.083v3.944c0 8.845-6.777 14.448-16.179 14.448-9.401 0-16.18-5.6-16.18-14.448Z" fill="#FAFAFA"/></svg>
